!!!COM: Palestrina, Giovanni Perluigi da
!!!OPR: Missa De Beata Marie Virginis (III)
!!!OMD: Credo
!!!OTL: Et incarnatus
**kern	**kern	**kern	**kern	**kern
*Ibass	*Itenor	*Itenor	*Icalto	*Icant
!Bassus	!Tenor 2	!Tenor 1	!Altus	!Cantus
*clefF4	*clefGv2	*clefGv2	*clefG2	*clefG2
*k[]	*k[]	*k[]	*k[]	*k[]
*G:mix	*G:mix	*G:mix	*G:mix	*G:mix
*M4/2	*M4/2	*M4/2	*M4/2	*M4/2
=61	=61	=61	=61	=61
1r	0r	0r	1g	0r
2r	.	.	2f	.
2G	.	.	2d	.
=62	=62	=62	=62	=62
2F	0r	1d	2.f	0r
2D	.	.	.	.
.	.	.	4g	.
[1F	.	2c	[1a	.
.	.	2A	.	.
=63	=63	=63	=63	=63
2F]	0r	1.c	2a]	0r
4E	.	.	4g	.
4D	.	.	4f	.
1E	.	.	1g	.
.	.	4B	.	.
.	.	4A	.	.
=64	=64	=64	=64	=64
1E	1g	2B	1e	0r
.	.	2c	.	.
[1D	2f	[1d	[1a	.
.	2d	.	.	.
=65	=65	=65	=65	=65
1D]	1.f	2d]	1a]	1dd
.	.	4c	.	.
.	.	4B	.	.
1r	.	[1A	1a	2cc
.	4e	.	.	2a
.	4d	.	.	.
=66	=66	=66	=66	=66
0r	2e	1A]	1a	1.cc
.	2f	.	.	.
.	2.g	1G	1d	.
.	.	.	.	4b
.	4f	.	.	4a
=67	=67	=67	=67	=67
1r	1e	2r	2g	2b
.	.	1g	2g	2cc
2r	1d	.	1a	2.dd
[2d	.	[2f	.	.
.	.	.	.	8cc
.	.	.	.	8b
=68	=68	=68	=68	=68
2d]	0r	2f]	2r	1a
1c	.	2e	2a	.
.	.	1d	1g	2r
2B	.	.	.	[2dd
=69	=69	=69	=69	=69
1A	1r	1a	2f	2dd]
.	.	.	2e	1cc
1G	2r	1d	1g	.
.	2d	.	.	2b
=70	=70	=70	=70	=70
1A	2c	0r	2f	1a
.	2c	.	2.e	.
1B	1d	.	.	1g
.	.	.	4d	.
.	.	.	[2d	.
=71	=71	=71	=71	=71
1A	1e	1r	2d]	[0a
.	.	.	2c#	.
4D	2f	2r	1d	.
4E	.	.	.	.
4F	[2f	[2d	.	.
4G	.	.	.	.
=72	=72	=72	=72	=72
1A	2f]	2d]	2r	1a]
.	2e	2c	1a	.
2r	2f	2d	.	1r
[2d	2d	2B-	2g	.
=73	=73	=73	=73	=73
2d]	2e	2A	1a	1r
2c#	2e	2A	.	.
1d	2d	[1a	1f	2r
.	[2d	.	.	[2ff
=74	=74	=74	=74	=74
1A	2d]	1a]	2r	2ff]
.	2c#	.	1a	2ee
2r	2.d	2r	.	1ff
[2d	.	[2f	2a	.
.	4e	.	.	.
=75	=75	=75	=75	=75
2d]	4f	2f]	2d	2dd
.	4d	.	.	.
2c#	2.a	2e	2A	1ee
2d	.	2f	2.a	.
.	4g	.	.	.
2D	2f	2d	.	[2dd
.	.	.	4a	.
=76	=76	=76	=76	=76
1A	2e	2e	1a	2dd]
.	1A	2e	.	2cc#
2F#	.	1d	1r	2.dd
[2G	2B-	.	.	.
.	.	.	.	4cc
=77	=77	=77	=77	=77
2G]	1G	1r	1g	2b-
4F	.	.	.	4a
4E	.	.	.	4g
1D	1r	1d	1f	[1a
=78	=78	=78	=78	=78
1r	0r	1c	1e	2a]
.	.	.	.	2g
1G	.	1B	[1d	1g
=79	=79	=79	=79	=79
1F	1r	1A	1d]	0r
1E	1g	1G	1c#	.
=80	=80	=80	=80	=80
1D	1f	2A	1d	1r
.	.	2B	.	.
1C	1e	1c	2r	1gg
.	.	.	2e	.
=81	=81	=81	=81	=81
4D	1d	0A	0a	1ff
4E	.	.	.	.
4F	.	.	.	.
4G	.	.	.	.
1A	1c#	.	.	1ee
=82	=82	=82	=82	=82
1D	4d	1.A	2f	1dd
.	4e	.	.	.
.	4f	.	1a	.
.	4d	.	.	.
1A	1e	.	.	1cc#
.	.	2A	2e	.
=83	=83	=83	=83	=83
[0D	[0d	[0A	[0f#	[0dd
=84	=84	=84	=84	=84
0D]	0d]	0A]	0f#]	0dd]
*-	*-	*-	*-	*-
!!!CDT: 1525/^1526/-1594/2/2
!!!OCY: Italia
!!!AGN: Mass (Paraphrase)
!!!AST: renaissance, vocal
!!!ASW: Gregorian Mass
!!!PWK: Masses, Book Mantuan I
!!!RNB: Cadence finals: D
!!!YOR: Le Opere Complete, v. 18, p. 162
!!!YOO: Rome, Italy: Fratelli Scalera
!!!END: 1992//
!!!EED: John Miller
!!!YEC: Copyright 2000, John Miller
!!!YEN: United States of America
!!!YEM: Rights to all derivative electronic formats reserved.
!!!YEM: Refer to licensing agreement for further details.
!!!YEM: This file must be accompanied by the licensing agreement.
!!!YEM: A copy of the licensing agreement may be found at http://www.music-cog.ohio-state.edu/HumdrumDatabases/Palestrina/license.txt
!!!EMD: converted to Humdrum by Bret Aarden
